X:52
T:Marche du roi Malbrouck
C:trad.
A:Alsace
O:France
Z:S. Piron
M:2/4
L:1/8
Q:1/4=130
K:G
D|:GG>G|GBAG|A2A>A|A3D|AA>A|ABcA|B2B>B|B2 zd|B>BBB|
B2dd|e>c cc|c2cc|A>AAA|A2cc|d>cBA|G3 D:|
